X:194
T:A Tribute to Paddy Fahy
M:C|
L:1/8
Q:180
C:Philippe Varlet
R:Reel
K:G
DGGA _BGAG | =FDCD {G}=FE=FG | Acde {a}=fedg | ec~c2 Gcec |
dg~g2 dgBd | cA=FA c2 Bc | dB{d}cA DE=FA |1 dcAc BGG=F :|2 dcAc BGBd ||
gedc (3Bcd ge | {a}=fe=fg  a=fdg | ec~c2 Gceg | fdef {a}gfga |
(3_bag {a}gf {a}g=fde | =fdcA =FGAc | dB{d}cA DE=FA |1 dcAc BGBd :|2
dcAc BGG2 ||


